packages/kaspersky-hexa-ui-icons/src/iconsSVGs/16/Forward.svg

<svg width="16" height="16" viewBox="0 0 16 16" fill="none" xmlns="http://www.w3.org/2000/svg">
<path d="M4.7627 5.19434C5.01655 4.94088 5.42889 4.94068 5.68262 5.19434L8.01172 7.52441C8.13331 7.64613 8.20196 7.81137 8.20215 7.9834C8.20215 8.15561 8.13338 8.3215 8.01172 8.44336L5.68262 10.7725C5.42878 11.0263 5.01653 11.0263 4.7627 10.7725C4.50925 10.5187 4.5092 10.1073 4.7627 9.85352L6.63281 7.9834L4.7627 6.11426C4.50892 5.86041 4.50888 5.44816 4.7627 5.19434Z" fill="black"/>
<path d="M8.64453 5.19434C8.8983 4.94074 9.31064 4.94082 9.56445 5.19434L11.8936 7.52441C12.0151 7.64613 12.0838 7.81137 12.084 7.9834C12.084 8.15571 12.0153 8.32148 11.8936 8.44336L9.56445 10.7725C9.31061 11.0263 8.89837 11.0263 8.64453 10.7725C8.39129 10.5187 8.3911 10.1072 8.64453 9.85352L10.5146 7.9834L8.64453 6.11426C8.39096 5.86039 8.39078 5.44809 8.64453 5.19434Z" fill="black"/>
<path fill-rule="evenodd" clip-rule="evenodd" d="M8 1C11.866 1 15 4.13401 15 8C15 11.866 11.866 15 8 15C4.13401 15 1 11.866 1 8C1 4.13401 4.13401 1 8 1ZM8 2.2998C4.85198 2.2998 2.2998 4.85198 2.2998 8C2.2998 11.148 4.85198 13.7002 8 13.7002C11.148 13.7002 13.7002 11.148 13.7002 8C13.7002 4.85198 11.148 2.2998 8 2.2998Z" fill="black"/>
</svg>

<svg xmlns="http://www.w3.org/2000/svg" width="16" height="16" fill="none" viewBox="0 0 16 16"><path fill="#000" fill-rule="evenodd" d="M15 8c0-3.866-3.134-7-7-7S1 4.134 1 8s3.134 7 7 7 7-3.134 7-7M2.2998 8C2.2998 4.852 4.852 2.2998 8 2.2998S13.7002 4.852 13.7002 8 11.148 13.7002 8 13.7002 2.2998 11.148 2.2998 8m2.4629-2.8057a.6515.6515 0 0 1 .92 0l2.329 2.3301a.65.65 0 0 1 .1904.459.652.652 0 0 1-.1904.46l-2.329 2.3291a.651.651 0 0 1-.92 0 .6503.6503 0 0 1 0-.919l1.8701-1.8701-1.8701-1.8691a.651.651 0 0 1 0-.92m3.8818 0a.6513.6513 0 0 1 .92 0l2.3291 2.3301a.65.65 0 0 1 .1904.459.652.652 0 0 1-.1904.46l-2.3291 2.3291a.651.651 0 0 1-.92 0 .6506.6506 0 0 1 0-.919l1.8701-1.8701-1.87-1.8691a.651.651 0 0 1 0-.92"/></svg>
